X:135
T:Miser's Jewel, The
M:2/4
L:1/8
B:Thompson's Compleat Collection of 200 Favourite Country Dances, vol. 2 (London, 1765)
Z:Transcribed and edited by Flynn Titford-Mock, 2007
Z:abc's:AK/Fiddler's Companion
K:G
G2 Gg | gddc | BGGB | AFED | G2 Gg | gddc | BGAB | GG/G/G :|
|: g2gb | agfd | efge | dcBG | g2 gb | agfd | egfa | g4 :|
|: B2 (3BGB | A2 (3AFA | B2 (3BGB | (3BdB A2 | G2 (3BGB | A2 (3AFA | (3BdB (3AcA | G2G2 :|

